icons/14x14_template_outline.svg

<svg xmlns="http://www.w3.org/2000/svg" width="14" height="14" viewBox="0 0 14 14">
  <path fill-rule="evenodd" d="M3,5 L11,5 L11,3 L3,3 L3,5 Z M5,11 L5,7 L3,7 L3,11 L5,11 Z M7,11 L11,11 L11,7 L7,7 L7,11 Z M2,1 L12,1 C12.5522847,1 13,1.44771525 13,2 L13,12 C13,12.5522847 12.5522847,13 12,13 L2,13 C1.44771525,13 1,12.5522847 1,12 L1,2 C1,1.44771525 1.44771525,1 2,1 Z"/>
</svg>

<svg width="14" height="14" fill="none" xmlns="http://www.w3.org/2000/svg"><path fill-rule="evenodd" clip-rule="evenodd" d="M3 5h8V3H3v2Zm2 6V7H3v4h2Zm2 0h4V7H7v4ZM2 1h10a1 1 0 0 1 1 1v10a1 1 0 0 1-1 1H2a1 1 0 0 1-1-1V2a1 1 0 0 1 1-1Z" fill="#000"/></svg>
